X:7
T:Labyrinth, The. JJo5.007
M:6/8
L:1/8
B:J.Johnson Choice Collection Vol 5, 1750
Z:vmp.Mike Hicken 2015 www.village-music-project.org.uk
N:* There is no closing repeat sign shown in the original.
Q:3/8=120
K:Gm
d|ga^f ga^f|g2G G2c|fg=e fg=e|f2F F2d|
ga^f ga^f|gab ag^f|gdc BcA|G2G, G,2 ?
|: F|BcA BcA|B2F Fdc|BcA BFE|D2B, B,2A|
BAB G^FG|ABG ^F=ED|G2E DCD|G,2G, G,2 "*":|

